tools/download-figma-icons/icons/outlined-medium/couple.svg

<svg width="24" height="24" viewBox="0 0 24 24" fill="none" xmlns="http://www.w3.org/2000/svg">
<path d="M20.5697 15.8866C20.4338 15.5343 19.5428 13.353 17.5269 12.3261C18.2895 11.5915 18.7802 10.4971 18.7802 9.26778C18.7802 7.04902 17.2098 5.25002 15.2769 5.25002C13.7442 5.25002 12.4606 6.38939 11.9849 7.96351C11.5093 6.38939 10.2182 5.25002 8.69298 5.25002C6.76765 5.24253 5.19718 7.04902 5.19718 9.26029C5.19718 10.4896 5.68795 11.5765 6.45053 12.3186C4.43459 13.3455 3.54365 15.5343 3.40775 15.8866C3.13594 16.4638 2.75842 17.4907 3.20389 18.1878C3.33224 18.3977 3.64936 18.7425 4.28359 18.7425H8.14936C8.56463 18.7425 8.90439 18.4052 8.90439 17.9929C8.90439 17.5807 8.56463 17.2433 8.14936 17.2433H4.53275C4.5705 17.0484 4.6611 16.7636 4.78946 16.5087C4.80456 16.4863 4.81211 16.4563 4.81966 16.4338C4.86496 16.3064 5.98241 13.293 8.70053 13.293C9.1762 13.293 9.62922 13.383 10.052 13.5704C10.4371 13.7353 10.8826 13.5629 11.0487 13.1806C11.1695 12.8958 11.1091 12.5884 10.9052 12.3711C11.4036 11.9063 11.7811 11.2917 12 10.5796C12.2114 11.2692 12.5739 11.8688 13.0495 12.3336C11.0336 13.3605 10.1426 15.5418 10.0067 15.8941C9.73493 16.4713 9.35741 17.4982 9.80288 18.1953C9.93124 18.4052 10.2484 18.75 10.8826 18.75H19.7165C20.3507 18.75 20.6603 18.4052 20.7962 18.1953C21.2341 17.4982 20.8641 16.4713 20.5923 15.8941L20.5697 15.8866ZM6.70724 9.26029C6.70724 7.87356 7.59818 6.74169 8.70053 6.74169C9.80288 6.74169 10.6938 7.87356 10.6938 9.26029C10.6938 10.647 9.80288 11.7789 8.70053 11.7789C7.59818 11.7789 6.70724 10.647 6.70724 9.26029ZM13.2987 9.26029C13.2987 7.87356 14.1896 6.74169 15.292 6.74169C16.3943 6.74169 17.2853 7.87356 17.2853 9.26029C17.2853 10.647 16.3943 11.7789 15.292 11.7789C14.1896 11.7789 13.2987 10.647 13.2987 9.26029ZM11.1242 17.2358C11.1619 17.041 11.2525 16.7561 11.3809 16.5013L11.4111 16.4263C11.4111 16.4263 12.5512 13.2855 15.292 13.2855C18.0327 13.2855 19.12 16.2764 19.1728 16.4263L19.203 16.5013C19.3314 16.7636 19.422 17.041 19.4598 17.2358H11.1242Z" fill="black"/>
</svg>

<svg width="24" height="24" viewBox="0 0 24 24" fill="none" xmlns="http://www.w3.org/2000/svg"><path d="M20.57 15.887c-.136-.353-1.027-2.534-3.043-3.56.762-.736 1.253-1.83 1.253-3.06 0-2.218-1.57-4.017-3.503-4.017-1.533 0-2.816 1.14-3.292 2.714-.476-1.575-1.767-2.714-3.292-2.714-1.925-.007-3.496 1.799-3.496 4.01 0 1.23.49 2.316 1.254 3.059-2.016 1.026-2.907 3.215-3.043 3.568-.272.577-.65 1.604-.204 2.3.128.21.445.555 1.08.555h3.865a.755.755 0 0 0 .755-.75.755.755 0 0 0-.755-.749H4.533c.037-.195.128-.48.256-.734.016-.023.023-.053.03-.075.046-.128 1.163-3.141 3.882-3.141.475 0 .928.09 1.351.277a.758.758 0 0 0 .997-.39.742.742 0 0 0-.144-.809A4.066 4.066 0 0 0 12 10.58c.211.69.574 1.289 1.05 1.754-2.016 1.027-2.907 3.208-3.043 3.56-.272.577-.65 1.604-.204 2.301.128.21.445.555 1.08.555h8.834c.634 0 .943-.345 1.08-.555.437-.697.067-1.724-.205-2.3l-.022-.008ZM6.707 9.26c0-1.386.891-2.518 1.994-2.518 1.102 0 1.993 1.132 1.993 2.518 0 1.387-.891 2.519-1.993 2.519-1.103 0-1.994-1.132-1.994-2.519Zm6.592 0c0-1.386.89-2.518 1.993-2.518 1.102 0 1.993 1.132 1.993 2.518 0 1.387-.89 2.519-1.993 2.519-1.102 0-1.993-1.132-1.993-2.519Zm-2.175 7.976c.038-.195.128-.48.257-.735l.03-.075s1.14-3.14 3.881-3.14c2.74 0 3.828 2.99 3.88 3.14l.031.075c.128.263.219.54.257.735h-8.336Z" fill="currentColor"/></svg>
